src/main/webapp/images/divaIcon.svg

<svg  version="1.1" xmlns="http://www.w3.org/2000/svg" width="700" height="70" viewBox="0 0 700 70">
    <defs>
        <g id="icon-diva_star">
            <path class="path1" d="M1.913 19.276c-0.209-0.38-0.405-0.735-0.606-1.1 0.47-0.37 0.934-0.724 1.385-1.094 1.535-1.258 2.903-2.671 4.015-4.324 0.133-0.199 0.122-0.331-0.007-0.523-1.316-1.956-2.998-3.553-4.853-4.984-0.173-0.133-0.347-0.265-0.544-0.416 0.203-0.37 0.401-0.731 0.6-1.092 0.826 0.301 1.63 0.614 2.447 0.889 1.648 0.555 3.336 0.92 5.074 1.050 0.234 0.018 0.343-0.052 0.445-0.27 1.011-2.167 1.576-4.458 1.925-6.811 0.024-0.164 0.049-0.327 0.076-0.502 0.415 0 0.82 0 1.26 0 0.053 0.385 0.115 0.773 0.158 1.162 0.245 2.206 1.005 4.254 1.901 6.263 0.083 0.186 0.214 0.165 0.356 0.156 1.307-0.080 2.594-0.306 3.846-0.679 1.257-0.374 2.497-0.807 3.781-1.227 0.157 0.316 0.337 0.676 0.519 1.041-0.618 0.51-1.239 1.003-1.838 1.521-1.341 1.158-2.547 2.442-3.557 3.904-0.134 0.194-0.133 0.324-0 0.519 1.351 1.984 3.079 3.596 4.957 5.061 0.147 0.115 0.293 0.23 0.444 0.349-0.183 0.372-0.358 0.726-0.543 1.1-0.601-0.227-1.189-0.461-1.785-0.671-1.868-0.657-3.778-1.123-5.759-1.28-0.262-0.021-0.387 0.064-0.494 0.294-0.973 2.089-1.558 4.289-1.88 6.564-0.033 0.235-0.066 0.472-0.101 0.722-0.43 0-0.843 0-1.167 0-0.373-1.591-0.697-3.164-1.121-4.708-0.248-0.9-0.663-1.753-0.992-2.631-0.076-0.204-0.19-0.255-0.401-0.236-2.112 0.196-4.154 0.692-6.144 1.416-0.459 0.167-0.913 0.35-1.395 0.536zM16.881 12.516c-0.001-2.438-1.945-4.365-4.367-4.401-2.484-0.037-4.411 2.103-4.412 4.399-0.001 2.298 1.915 4.402 4.395 4.373 2.449-0.029 4.385-1.934 4.384-4.371z"></path>
        </g>
        <g id="icon-diva">
            <path class="path1" d="M0.189 1.079l-0.027-0.509c2.408 0 4.437-0.103 6.083-0.3 0.612-0.082 1.245-0.121 1.903-0.121 1.338 0 2.617 0.201 3.843 0.598 1.224 0.404 2.31 0.979 3.265 1.734 0.95 0.756 1.699 1.679 2.247 2.761 0.542 1.083 0.814 2.298 0.814 3.646 0 1.634-0.421 3.13-1.26 4.476-0.843 1.35-2.045 2.414-3.602 3.195-1.562 0.779-3.341 1.166-5.337 1.166-0.116 0-0.471-0.012-1.063-0.025-0.594-0.018-0.942-0.029-1.041-0.029-0.349 0-0.663 0.002-0.937 0.008-0.274 0.004-0.675 0.008-1.197 0.021-0.53 0.006-1.031 0.018-1.513 0.033-0.483 0.012-0.811 0.016-0.992 0.016l-1.323-0.023v-0.514c0.965 0 1.54-0.213 1.741-0.633 0.226-0.49 0.338-2.729 0.338-6.704 0-2.642-0.032-4.608-0.095-5.909-0.063-1.294-0.19-2.1-0.377-2.416-0.234-0.34-0.722-0.499-1.47-0.471zM15.971 8.917c0-1.708-0.403-3.176-1.215-4.405-0.809-1.226-1.842-2.155-3.104-2.785-1.255-0.627-2.547-0.945-3.87-0.945-1.292 0-2.466 0.236-3.507 0.704-0.089 0.503-0.157 2.004-0.201 4.507-0.047 2.497-0.068 4.651-0.068 6.459 0 0.068 0.009 0.41 0.021 1.014 0.012 0.602 0.026 1.209 0.039 1.824 0.013 0.617 0.021 0.969 0.021 1.063 0.909 0.289 1.605 0.484 2.090 0.6 0.485 0.111 1.098 0.168 1.834 0.168 1.865 0 3.386-0.406 4.579-1.211 1.191-0.803 2.053-1.83 2.584-3.082 0.531-1.247 0.797-2.554 0.797-3.911z"></path>
            <path class="path2" d="M20.679 17.831l0.054-0.42c0.765-0.068 1.195-0.207 1.295-0.4 0.046-0.078 0.083-0.404 0.12-0.965 0.039-0.561 0.062-1.232 0.088-2.014 0.021-0.771 0.032-1.213 0.032-1.313 0-1.279-0.018-2.094-0.059-2.453-0.041-0.358-0.119-0.61-0.236-0.743-0.035-0.045-0.263-0.094-0.675-0.135-0.415-0.043-0.619-0.104-0.619-0.178 0-0.143 0.079-0.231 0.24-0.267 1.072-0.333 2.119-0.923 3.143-1.767 0.066 0 0.15 0.019 0.262 0.053-0.094 0.368-0.169 0.909-0.23 1.621-0.063 0.709-0.118 1.453-0.158 2.234-0.041 0.787-0.059 1.479-0.059 2.082 0 0.447 0.016 1.092 0.046 1.936 0.031 0.84 0.088 1.408 0.171 1.705 0.069 0.162 0.159 0.264 0.266 0.313 0.11 0.043 0.327 0.080 0.65 0.105 0.313 0.008 0.626 0.037 0.943 0.082l0.161 0.393-5.435 0.131z"></path>
            <path class="path3" d="M22.441 4.556c0-0.31 0.104-0.561 0.312-0.758 0.205-0.197 0.453-0.294 0.742-0.294 0.287 0 0.53 0.101 0.725 0.306 0.201 0.208 0.299 0.458 0.299 0.746 0 0.283-0.098 0.533-0.289 0.742-0.196 0.206-0.438 0.308-0.734 0.308-0.289 0-0.537-0.102-0.742-0.308-0.209-0.209-0.313-0.459-0.313-0.742z"></path>
            <path class="path4" d="M25.051 0.729l0.071-0.485 1.090 0.026 2.211 0.081c0.208-0.010 0.396-0.014 0.568-0.019 0.172-0.006 0.425-0.010 0.77-0.010l1.349 0.028 0.026 0.43c-0.795 0.059-1.283 0.106-1.464 0.165-0.186 0.052-0.275 0.165-0.275 0.333 0 0.248 0.182 0.834 0.558 1.771 0.373 0.937 0.835 2.010 1.383 3.227 0.542 1.225 0.935 2.102 1.178 2.641l1.891 4.061 0.376 0.771c0.253 0.518 0.438 0.904 0.554 1.156 0.311-0.541 0.672-1.238 1.094-2.094 0.421-0.863 0.821-1.695 1.189-2.494 0.371-0.797 0.578-1.237 0.615-1.317l1.762-3.872c0.261-0.568 0.52-1.185 0.776-1.855 0.254-0.673 0.385-1.151 0.385-1.438 0-0.593-0.494-0.931-1.486-1.012l0.082-0.553c1.034 0.090 2.096 0.135 3.184 0.135 0.287-0.010 0.546-0.017 0.767-0.021 0.228-0.002 0.511-0.010 0.853-0.010v0.384c-0.594 0.194-1.039 0.407-1.334 0.636-0.299 0.229-0.594 0.6-0.893 1.101-0.299 0.503-0.803 1.484-1.521 2.938l-3.034 6.047c-0.573 1.113-1.144 2.336-1.705 3.672-0.562 1.33-0.889 2.316-0.977 2.965l-0.42 0.053c-0.209-0.592-0.437-1.156-0.686-1.686l-0.922-2.025c-0.277-0.719-0.658-1.572-1.134-2.563l-2.266-4.788c-1.674-3.477-2.68-5.404-3.012-5.772-0.203-0.235-0.425-0.39-0.659-0.464-0.235-0.079-0.549-0.126-0.944-0.143z"></path>
            <path class="path5" d="M51.583 17.831v-0.443c0.415-0.072 0.743-0.168 0.988-0.283 0.251-0.117 0.375-0.316 0.375-0.594 0-0.26-0.080-0.639-0.241-1.135-0.163-0.492-0.285-0.836-0.364-1.023l-0.998-2.711c-0.522-0.074-1.375-0.109-2.551-0.109h-1.071c-1.072-0.031-2.019 0.021-2.831 0.164l-0.986 2.494c-0.438 1.043-0.657 1.695-0.657 1.953 0 0.318 0.144 0.584 0.429 0.793 0.278 0.213 0.86 0.379 1.729 0.506v0.447c-1.046-0.127-1.944-0.189-2.686-0.189-0.751 0-1.573 0.035-2.45 0.107v-0.396c0.536-0.129 0.952-0.344 1.239-0.629 0.218-0.191 0.498-0.639 0.856-1.344 0.354-0.703 0.716-1.473 1.078-2.309 0.366-0.83 0.632-1.48 0.795-1.945l2.157-5.168c0.273-0.618 0.546-1.27 0.833-1.948 0.285-0.683 0.552-1.361 0.801-2.042 0.255-0.688 0.437-1.235 0.558-1.651 0-0.115 0.022-0.196 0.080-0.254l0.442-0.026c0.278 0.999 0.59 1.956 0.918 2.872l2.831 7.599c0.728 1.895 1.277 3.295 1.649 4.201 0.375 0.9 0.699 1.545 0.979 1.936 0.235 0.328 0.709 0.531 1.442 0.605v0.471c-0.735-0.072-1.448-0.107-2.136-0.107-0.536 0-1.036 0.014-1.502 0.041-0.463 0.025-0.827 0.051-1.096 0.076-0.275 0.018-0.476 0.037-0.61 0.041zM47.314 5.679l-1.522 3.926c-0.205 0.556-0.347 0.907-0.418 1.052 0.681 0.109 1.466 0.16 2.356 0.16l1.239-0.023c0.749 0 1.416-0.021 2.008-0.057-0.313-0.919-0.516-1.464-0.607-1.63l-0.968-2.487c-0.107-0.268-0.315-0.756-0.61-1.468-0.301-0.71-0.52-1.193-0.657-1.458-0.171 0.379-0.311 0.724-0.437 1.035-0.121 0.308-0.249 0.625-0.384 0.95z"></path>
        </g>
        <g id="icon-future_attachment">
            <path class="path1" d="M7.813 9.375h3.125v3.125h-3.125zM12.5 9.375h3.125v3.125h-3.125zM17.188 9.375h3.125v3.125h-3.125zM3.125 18.75h3.125v3.125h-3.125zM7.813 18.75h3.125v3.125h-3.125zM12.5 18.75h3.125v3.125h-3.125zM7.813 14.063h3.125v3.125h-3.125zM12.5 14.063h3.125v3.125h-3.125zM17.188 14.063h3.125v3.125h-3.125zM3.125 14.063h3.125v3.125h-3.125zM20.313 0v1.563h-3.125v-1.563h-10.938v1.563h-3.125v-1.563h-3.125v25h23.438v-25h-3.125zM21.875 23.438h-20.313v-17.188h20.313v17.188z"></path>
        </g>
    </defs>
</svg>

<?xml version="1.0" encoding="UTF-8" standalone="no"?>
<!-- Created with Inkscape (http://www.inkscape.org/) -->

<svg
   width="26.285473mm"
   height="35.008709mm"
   viewBox="0 0 26.285473 35.008707"
   version="1.1"
   id="svg1107"
   inkscape:version="1.3 (0e150ed6c4, 2023-07-21)"
   sodipodi:docname="divaIcon.svg"
   xmlns:inkscape="http://www.inkscape.org/namespaces/inkscape"
   xmlns:sodipodi="http://sodipodi.sourceforge.net/DTD/sodipodi-0.dtd"
   xmlns="http://www.w3.org/2000/svg"
   xmlns:svg="http://www.w3.org/2000/svg"
   xmlns:rdf="http://www.w3.org/1999/02/22-rdf-syntax-ns#"
   xmlns:cc="http://creativecommons.org/ns#"
   xmlns:dc="http://purl.org/dc/elements/1.1/">
  <defs
     id="defs1101" />
  <sodipodi:namedview
     id="base"
     pagecolor="#ffffff"
     bordercolor="#666666"
     borderopacity="1.0"
     inkscape:pageopacity="0.0"
     inkscape:pageshadow="2"
     inkscape:zoom="5.6"
     inkscape:cx="41.517857"
     inkscape:cy="71.428571"
     inkscape:document-units="mm"
     inkscape:current-layer="layer1"
     showgrid="false"
     inkscape:window-width="1920"
     inkscape:window-height="1172"
     inkscape:window-x="0"
     inkscape:window-y="0"
     inkscape:window-maximized="1"
     fit-margin-top="0"
     fit-margin-left="0"
     fit-margin-right="0"
     fit-margin-bottom="0"
     inkscape:showpageshadow="2"
     inkscape:pagecheckerboard="0"
     inkscape:deskcolor="#d1d1d1" />
  <metadata
     id="metadata1104">
    <rdf:RDF>
      <cc:Work
         rdf:about="">
        <dc:format>image/svg+xml</dc:format>
        <dc:type
           rdf:resource="http://purl.org/dc/dcmitype/StillImage" />
      </cc:Work>
    </rdf:RDF>
  </metadata>
  <g
     inkscape:label="Layer 1"
     inkscape:groupmode="layer"
     id="layer1"
     transform="translate(-95.683817,-135.88141)">
    <g
       id="icon-diva_star"
       transform="matrix(1.173773,0,0,1.173773,94.154391,135.76521)"
       style="fill:#75598e;fill-opacity:1">
      <path
         class="path1"
         d="M 1.913,19.276 C 1.704,18.896 1.508,18.541 1.307,18.176 1.777,17.806 2.241,17.452 2.692,17.082 4.227,15.824 5.595,14.411 6.707,12.758 6.84,12.559 6.829,12.427 6.7,12.235 5.384,10.279 3.702,8.682 1.847,7.251 1.674,7.118 1.5,6.986 1.303,6.835 1.506,6.465 1.704,6.104 1.903,5.743 2.729,6.044 3.533,6.357 4.35,6.632 5.998,7.187 7.686,7.552 9.424,7.682 9.658,7.7 9.767,7.63 9.869,7.412 10.88,5.245 11.445,2.954 11.794,0.601 11.818,0.437 11.843,0.274 11.87,0.099 c 0.415,0 0.82,0 1.26,0 0.053,0.385 0.115,0.773 0.158,1.162 0.245,2.206 1.005,4.254 1.901,6.263 0.083,0.186 0.214,0.165 0.356,0.156 1.307,-0.08 2.594,-0.306 3.846,-0.679 1.257,-0.374 2.497,-0.807 3.781,-1.227 0.157,0.316 0.337,0.676 0.519,1.041 -0.618,0.51 -1.239,1.003 -1.838,1.521 -1.341,1.158 -2.547,2.442 -3.557,3.904 -0.134,0.194 -0.133,0.324 0,0.519 1.351,1.984 3.079,3.596 4.957,5.061 0.147,0.115 0.293,0.23 0.444,0.349 -0.183,0.372 -0.358,0.726 -0.543,1.1 -0.601,-0.227 -1.189,-0.461 -1.785,-0.671 -1.868,-0.657 -3.778,-1.123 -5.759,-1.28 -0.262,-0.021 -0.387,0.064 -0.494,0.294 -0.973,2.089 -1.558,4.289 -1.88,6.564 -0.033,0.235 -0.066,0.472 -0.101,0.722 -0.43,0 -0.843,0 -1.167,0 C 11.595,23.307 11.271,21.734 10.847,20.19 10.599,19.29 10.184,18.437 9.855,17.559 9.779,17.355 9.665,17.304 9.454,17.323 7.342,17.519 5.3,18.015 3.31,18.739 2.851,18.906 2.397,19.089 1.915,19.275 Z m 14.968,-6.76 C 16.88,10.078 14.936,8.151 12.514,8.115 10.03,8.078 8.103,10.218 8.102,12.514 c -10e-4,2.298 1.915,4.402 4.395,4.373 2.449,-0.029 4.385,-1.934 4.384,-4.371 z"
         id="path167"
         style="fill:#75598e;fill-opacity:1" />
    </g>
    <text
       xml:space="preserve"
       style="font-style:normal;font-weight:normal;font-size:10.5833px;line-height:1.25;font-family:sans-serif;letter-spacing:0px;word-spacing:0px;fill:#1a1a1a;fill-opacity:1;stroke:none;stroke-width:0.264583"
       x="99.794456"
       y="169.99707"
       id="text1119"
       transform="rotate(0.87364207)"><tspan
         sodipodi:role="line"
         id="tspan1117"
         x="99.794456"
         y="169.99707"
         style="fill:#1a1a1a;fill-opacity:1;stroke-width:0.264583">Cora</tspan></text>
  </g>
</svg>
